X:1
T:Vesti la Giubba
T:Vesti la Giubba
T:From Pagliacci
T:Leoncavallo
C:Leoncavallo
%%score 1 2 3
L:1/8
M:4/4
K:F
V:1 treble nm="Flute" snm="Fl."
V:2 treble transpose=-2 nm="B♭ Clarinet" snm="B♭ Cl."
V:3 treble transpose=-2 nm="B♭ Clarinet" snm="B♭ Cl."
V:1
!p! (d4 ^c3 F | A4 A2) (AA | A4 ^G3 D | F4 F4) | z2!<(! (E2 F2 G2!<)! | A4 A3) (A | %6
!<(! A2 A2 B2 c2!<)! | d8) |!mf! (f4 e3 e | _e6 d2 | ^c2 d2 A2 =c2 | c4 B4) | (B4 F3 G | %13
 A4 f3) (c | d4 d!tenuto!E!tenuto!E!tenuto!E |!<(! F8)!<)! | z2!<(! (F2 E2 F2!<)! | %17
!<(! ^G2 A2 c2 f2!<)! |!f! _g4 _G2 G2 | F4 F2) z2 | z2 (E2 A2 ^G2 |"_cresc." c4 =B2 A2 | %22
 d2 d2 ^c3 =B |!f! e4) e4 |!<(! e8!<)! |!ff! (f4 e3 d | f4 e4) | (3z2 (e2 f2 (3g2 f3 e | g4 f4) | %29
!f! (e4 d3 B | A4) (3!tenuto!E2 !tenuto!F2 !tenuto!G2 |"^rit." A4 A2 A2 |!>(! A8!>)! |] %33
V:2
[K:G] z4!p! G4 | z4 G4 | z4 G4 | z4 E4 |!<(! E8!<)! | F8 |!<(! =F8!<)! | (C2 G2 c2 e2) | %8
!mf! D4 D4 | C4 C4 | B,4 B,4 | E8 | _E4 C4 | G4 D4 | C4 C4 |!<(! B,4 B,4!<)! |!<(! B,4 B,4!<)! | %17
!<(! D4 B,4!<)! |!f! C8 | D8 | D6 ^C2 |"_cresc." B,4 E2 D2 | ^C4 E4 |!f! A4 A4 |!<(! A8!<)! | %25
!ff! c8 | c8 | z4 c4 | z4 e4 | z4!f! E4 | E4 E4 |"^rit." ^D4 A,4 |!>(! ^G,4 z4!>)! |] %33
V:3
[K:G]!p! E4 E4 | E4 E4 | E4 E4 | E4 B,4 |!<(! A,8!<)! | ^G,8 |!<(! =G,8!<)! | G,8 |!mf! B,4 B,4 | %9
 A,4 A,4 | ^G,4 G,4 | A,8 | A,4 z4 | D4 B,4 | A,4 D4 |!<(! G,4 G,4!<)! |!<(! G,4 G,4!<)! | %17
!<(! G,4 G,4!<)! |!f! =F,8 | G,8 | F,8 |"_cresc." F,8 | F,4 F,4 |!f! C2 !>!f2 !>!e2 !>!c2 | %24
!<(! !>!B2 !>!F2 !>!^D2 !>!B,2!<)! |!ff! !>!A,4 A4 | A,4 A4 | C4 F4 | B,4 G4 |!f! A,4 C4 | G4 C4 | %31
"^rit." A4 B,4 |!>(! E4 E,4!>)! |] %33

